symbols/web/power/materialsymbolsrounded/power_wght700gradN25_20px.svg

<svg xmlns="http://www.w3.org/2000/svg" height="20" width="20"><path d="M9.604 15.417h.792v-1.584l2.562-2.604V7.812H7.042v3.417l2.562 2.604ZM7 14.917l-1.792-1.792q-.375-.354-.573-.854-.197-.5-.197-1.021V7.812q0-1.104.75-1.864t1.854-.76h.625l-1.313 1.27V3.271q0-.5.396-.896t.917-.396q.5 0 .895.396.396.396.396.896v1.937h2.084V3.271q0-.5.396-.896.395-.396.916-.396.5 0 .896.396t.396.896v3.187l-1.292-1.27h.604q1.104 0 1.854.76t.75 1.864v3.438q0 .521-.197 1.021-.198.5-.573.854L13 14.917v1.812q0 .521-.385.906-.386.386-.907.386H8.292q-.521 0-.907-.386Q7 17.25 7 16.729Zm3-3.313Z"/></svg>

<svg xmlns="http://www.w3.org/2000/svg" height="20" width="20"><path d="M9.604 15.417H10.396V13.833L12.958 11.229V7.812Q12.958 7.812 12.958 7.812Q12.958 7.812 12.958 7.812H7.042Q7.042 7.812 7.042 7.812Q7.042 7.812 7.042 7.812V11.229L9.604 13.833ZM7 14.917 5.208 13.125Q4.833 12.771 4.635 12.271Q4.438 11.771 4.438 11.25V7.812Q4.438 6.854 4.958 6.146Q5.479 5.438 6.292 5.271L6.354 5.208V3.271Q6.354 2.771 6.75 2.375Q7.146 1.979 7.667 1.979Q8.167 1.979 8.562 2.375Q8.958 2.771 8.958 3.271V5.208H11.042V3.271Q11.042 2.771 11.438 2.375Q11.833 1.979 12.354 1.979Q12.854 1.979 13.25 2.375Q13.646 2.771 13.646 3.271V5.208L13.708 5.271Q14.542 5.438 15.052 6.135Q15.562 6.833 15.562 7.812V11.25Q15.562 11.771 15.365 12.271Q15.167 12.771 14.792 13.125L13 14.917V16.729Q13 17.25 12.615 17.635Q12.229 18.021 11.708 18.021H8.292Q7.771 18.021 7.385 17.635Q7 17.25 7 16.729ZM10 11.604Q10 11.604 10 11.604Q10 11.604 10 11.604Q10 11.604 10 11.604Q10 11.604 10 11.604Z"/></svg>
